X: 564
T: Älvdalspolska efter Lars Orre
S: efter Lars Orre Rot
S: Känd genom BOOT
O: Älvdalen, Dalarna
D: BOOT, Virvla
R: Polska
Z: Håkan Lidén, 2008-09-28
M: 9/8
L: 1/8
K: Am
e2 ^g2 b2 a3 | a2 ga ge f2 g| f2 e d e2 f2 g | a2 f dfd e3 |
e2 ^g2 b2 a3 | a2 ga ge f2 g | f2 e d f2 a2 f | fd2 e6 :|
|: B2 cB cd e2 c | B2 A2 B2 c3 | B2 cB cd e2 c | B2 A2 G2 E3 |
B2 cB cd e2 c | B2 A2 B2 c3 | B2 cB cd e2 c | BG2 A6 :|
(:musicend:)

[[!Kategori:Ovanligt taktartsval]]

(:music:)
